priv/static/svgs/icons_new/generic-settings.svg

<svg width="32" height="32" viewBox="0 0 32 32" fill="none" xmlns="http://www.w3.org/2000/svg">
<path d="M16 6.5C17.2108 6.5 18.1923 7.48153 18.1923 8.69231C18.1923 8.89141 18.3221 9.06609 18.5091 9.13444C18.7033 9.20545 18.8937 9.28445 19.0799 9.37107C19.2606 9.45518 19.4762 9.42344 19.6171 9.28249C20.4733 8.42634 21.8614 8.42634 22.7175 9.28249C23.5737 10.1386 23.5737 11.5268 22.7175 12.3829C22.5766 12.5239 22.5448 12.7394 22.6289 12.9202C22.7156 13.1063 22.7946 13.2967 22.8656 13.4909C22.9339 13.6779 23.1086 13.8077 23.3077 13.8077C24.5185 13.8077 25.5 14.7892 25.5 16C25.5 17.2108 24.5185 18.1923 23.3077 18.1923C23.1086 18.1923 22.9339 18.3221 22.8656 18.5091C22.7946 18.7033 22.7155 18.8937 22.6289 19.0799C22.5448 19.2606 22.5765 19.4762 22.7175 19.6171C23.5737 20.4733 23.5737 21.8614 22.7175 22.7175C21.8614 23.5737 20.4733 23.5737 19.6171 22.7175C19.4762 22.5766 19.2606 22.5448 19.0799 22.6289C18.8937 22.7155 18.7033 22.7946 18.5091 22.8656C18.3221 22.9339 18.1923 23.1086 18.1923 23.3077C18.1923 24.5185 17.2108 25.5 16 25.5C14.7892 25.5 13.8077 24.5185 13.8077 23.3077C13.8077 23.1086 13.6779 22.9339 13.4909 22.8656C13.2967 22.7946 13.1063 22.7155 12.9202 22.6289C12.7394 22.5448 12.5239 22.5766 12.3829 22.7175C11.5267 23.5737 10.1386 23.5737 9.28249 22.7175C8.42634 21.8614 8.42634 20.4733 9.28249 19.6171C9.42346 19.4762 9.45521 19.2606 9.37109 19.0799C9.28446 18.8937 9.20543 18.7033 9.13442 18.5091C9.06607 18.3221 8.89139 18.1923 8.69231 18.1923C7.48153 18.1923 6.5 17.2108 6.5 16C6.5 14.7892 7.48153 13.8077 8.69231 13.8077C8.89139 13.8077 9.06607 13.6779 9.13442 13.4909C9.20543 13.2967 9.28445 13.1063 9.37108 12.9202C9.45519 12.7394 9.42344 12.5239 9.28249 12.3829C8.42634 11.5267 8.42634 10.1386 9.28249 9.28249C10.1386 8.42634 11.5267 8.42634 12.3829 9.28249C12.5238 9.42344 12.7394 9.45519 12.9201 9.37108C13.1063 9.28446 13.2967 9.20545 13.4909 9.13444C13.6779 9.06609 13.8077 8.89141 13.8077 8.69231C13.8077 7.48153 14.7892 6.5 16 6.5Z" stroke="black"/>
<path d="M20.2222 16C20.2222 18.3319 18.3319 20.2222 16 20.2222C13.6681 20.2222 11.7778 18.3319 11.7778 16C11.7778 13.6681 13.6681 11.7778 16 11.7778C18.3319 11.7778 20.2222 13.6681 20.2222 16Z" stroke="black"/>
</svg>

<svg width="32" height="32" viewBox="0 0 32 32" fill="none" xmlns="http://www.w3.org/2000/svg">
  <symbol id="item" viewBox="0 0 32 32" stroke-width="1" fill="none">
    <path d="M16 6.5c1.21 0 2.192.982 2.192 2.192 0 .2.13.374.317.442.194.071.385.15.57.237.182.084.397.052.538-.089a2.192 2.192 0 1 1 3.1 3.1.475.475 0 0 0-.088.538c.087.186.166.377.237.57a.475.475 0 0 0 .442.318 2.192 2.192 0 1 1 0 4.384c-.2 0-.374.13-.442.317-.071.194-.15.385-.237.57a.475.475 0 0 0 .088.538 2.192 2.192 0 1 1-3.1 3.1.475.475 0 0 0-.537-.088 7.287 7.287 0 0 1-.57.237.475.475 0 0 0-.318.442 2.192 2.192 0 1 1-4.384 0c0-.2-.13-.374-.317-.442a7.269 7.269 0 0 1-.57-.237.475.475 0 0 0-.538.088 2.192 2.192 0 1 1-3.1-3.1.475.475 0 0 0 .088-.537 7.279 7.279 0 0 1-.237-.57.475.475 0 0 0-.442-.318 2.192 2.192 0 1 1 0-4.384c.2 0 .374-.13.442-.317a7.26 7.26 0 0 1 .237-.57.475.475 0 0 0-.089-.538 2.192 2.192 0 0 1 3.1-3.1c.142.14.357.172.538.088.186-.087.377-.166.57-.237a.475.475 0 0 0 .318-.442c0-1.21.981-2.192 2.192-2.192Z" stroke="currentColor"/><path d="M20.222 16a4.222 4.222 0 1 1-8.444 0 4.222 4.222 0 0 1 8.444 0Z" stroke="currentColor"/>
  </symbol>
</svg>
